X:1
T:Nocturne Op. 15 No. 2 in F♯ major
T:Nocturne Op. 15 No. 2 in F♯ major
T:Frédéric Chopin
C:Frédéric Chopin
%%score { ( 1 5 6 7 ) | ( 2 3 4 8 ) }
L:1/8
Q:1/4=40
M:2/4
K:F#
V:1 treble nm="鋼琴" snm="Pno."
V:5 treble 
V:6 treble 
V:7 treble 
V:2 bass 
V:3 bass 
V:4 bass 
V:8 bass 
V:1
"^Larghetto""_sostenuto" (!>!A/>B/ |!>(! A/G/E/!p!C/)!>)! (.C.C) | C-(C/4F/4A/4d/4 .c) (!>!A/>B/ | %3
!mf!!>(! (5:4:5A/G/E/=D/!>)!C/)!p! (.C.C) | !>!C-(5:4:5(C/4F/4A/4F/4d/4 .c) (!>!B/>c/ | %5
!mf!!>(! B/A/!p!^^F/D/)!>)! (.D.D) | .D !>!^f-(f/d/F/G/ | .A) (!>!B/>A/ TG{/^^FG}A/)z/4(G/4 | %8
 ^F!>!E/>D/ .[G,C])[Q:1/4=60]!<(!(3(x/C/F/[Q:1/4=40] (A/>)B/!<)! | %9
[Q:1/4=70]!mf!(x/E/[Q:1/4=40]!>(! A/)G/E/C/)!>)!!p! (.C.C) | %10
 !>!C-!<(!(C/4F/4A/4d/4!mf! .c)!<)! (7:4:7(A/4B/4A/4^^G/4A/4c/4^B/4) | %11
"^leggiero" (30:4:30(=BAB)(A=AG)(AGA)(G=GF)(GFG)(F=F=E^E^FE(DEF)(^A^GEFDG)) | %12
{/G} C-(5:4:6(C/4F/4A/4.f/4)z/8(d/8 .c)!>(! (6:4:6(^^G/4A/4B/4!>)!!p!A/4=e/4d/4 | %13
 (5:4:5.=d/.c/.A/.^^F/.A/) (!>!=E/>^D/) (6:4:6(D/4^^C/4D/4^F/4E/4D/4) | %14
 (3(.D/.f/.d/) !>!f'-(f'/4d'/4b/4g/4f/4d/4(3(B/4F/4G/4) | .A) (!>!B/>A/ TG{/^^FG}A/)z/4(G/4 | %16
 [A,^F]2) z (!>!E/>F/ |!p! G!<(!c/>d/ .e.e)!<)! |!mf! (!>!e2 =A2-) | A(^c/>e/ (3.f.f.f) | %20
!pp![Q:1/4=36] (f2 =A2-) | A!<(!(^d/>e/ f"_cresc."f/>f/)!<)! | %22
!mf! (!>!f>e) (6:4:6(d/e/d/^^c/d/e/) | (d>^^c) (3(B/^c/B/ (5:4:5A/4B/4d/4c/4B/4) | %24
"_string." !>!BA-"_riten."[Q:1/4=32] (6:4:6(.A/[Q:1/4=28].A/[Q:1/4=24].A/[Q:1/4=20].A/[Q:1/4=16].A/[Q:1/4=10].B/) | %25
[Q:1/4=80]"^Doppio movimento""_sotto voce"!p! (5:4:3(e3/2x/d/)!<(! (5:4:3(c3/2x/d/) | %26
 (5:4:3e3/2x/f/ (5:4:3g3/2x/a/!<)! |!mf!!>(! (5:4:3g3/2x/!>)!e/!>(! (5:4:3f3/2x/!>)!d/ | !>!e4 | %29
 (5:4:3(e3/2x/d/!<(! (5:4:3c3/2x/d/ | (5:4:3e3/2x/f/ (5:4:3g3/2x/a/!<)! | %31
!mf!!>(! (5:4:3g3/2x/!>)!e/!>(! (5:4:3f3/2x/!>)!d/ | (5:4:3e3/2x/e/ (5:4:3^^f3/2x/!f!f/) | %33
 (6:4:4g3/2x/x/^f/!mf!!<(! (6:4:4=e3/2x/x/f/ | (6:4:4g3/2x/x/=a/ (6:4:4b3/2x/x/c'/!<)! | %35
!f!!>(! (6:4:4b3/2x/x/!>)!g/!>(! (6:4:4=a3/2x/x/!>)!f/ | !>!g4 | %37
 (6:4:4(g3/2!>(!x/x/!>)!f/!p!!<(! (6:4:4=e3/2x/x/f/ | (6:4:4g3/2x/x/=a/ (6:4:4b3/2x/x/c'/)!<)! | %39
!mf!!>(!"_cresc." (6:4:4(=d'3/2x/x/!>)!c'/!>(! (6:4:4d'3/2x/x/!>)!c'/) | %40
!>(!"_cresc." (6:4:4(=d'3/2x/x/!>)!c'/!>(! (6:4:4=e'3/2x/x/!>)!d'/ | %41
!>(! (6:4:4=d'3/2x/x/!>)!c'/!f!!>(! (6:4:4c'3/2x/x/!>)!b/ | %42
!>(! (6:4:4=a3/2x/x/!>)!g/!>(! (6:4:4g3/2x/x/!>)!f/) | %43
!>(! (6:4:4(f3/2x/x/!>)!e/)!>(! (6:4:4=d3/2x/x/!>)!c/ | %44
!>(!"_dim." (6:4:4=d3/2x/x/!>)!c/!>(! (6:4:4d3/2x/x/!>)!c/ | %45
!>(! (6:4:4(=d3/2x/x/!>)!c/) z/ z/4[K:bass] E,/4 (3(G,/C,/C/) | %46
 (6:4:4(!>!=D3/2x/x/C/)!pp! (6:4:4(D3/2x/x/C/) | %47
"_molto rall."[Q:1/4=74] (6:4:4(!>!=D3/2[Q:1/4=68]x/"_dim."x/C/)[Q:1/4=62] (6:4:4(!>!D3/2[Q:1/4=56]x/x/C/) | %48
"_smorz."[Q:1/4=50] (6:4:4(!>!=D3/2[Q:1/4=44]x/x/!pp!C/)[Q:1/4=20] !fermata!z[K:treble][Q:1/4=40]"^Tempo I" (!>!A/>B/ | %49
!>(! A/G/E/>C/)!>)! (.C.C) | %50
!<(! !>!C-(C/4F/4A/4!<)!!f!d/4!>(! .c) (7:4:7(A/4!>)!!p!B/4A/4^^G/4A/4c/4^B/4) | %51
"^leggieriss." (40:4:40(=B^gBA^^fA=A^fAGeG=G=eGFdF^E)(=dc=cB^A=A^G=GFEFE^DEF^A^GEFDG) | %52
{/G} !>!C-(5:4:6(C/4F/4A/4f/4)z/8(d/8 .c) (!>!B/>c/ |!>(! B/A/^^F/>!>)!!p!D/) (.D.D) | %54
 (3.D/.^f/.d/"^con forza" f'-!>(!(6:4:6(f'/4a'/4g'/4f'/4d'/4b/4(6:4:6a/4g/4f/4d/4F/4!>)!!p!G/4 | %55
 .A) (!>!B/>A/ TG{/^^FG}!>!A/>)G/ | (!>!d/>c/) (3(c/B/A/)({/^^FG)} TG({/FG)}!>!A/z/4G/4 | %57
 (3((^F/f/e/ (5:4:5.g/4).=g/4.f/4.=f/4.=e/4"_dim.  e rall." (6:4:6.d/4.=B/4.=d/4.^A/4.c/4.=A/4 (3.=c/4.^G/4!>!B/4- (3B/4^A/4G/4) | %58
!pp! .F!>(!!8va(! !>!d''-(d''/!>)!!p!(3(c''/4a'/4f'/4)) (b'/(3(a'/4f'/4c'/4))!8va)! | %59
"_dim." (g'/(3f'/4c'/4a/4) (d'/(3c'/4a/4f/4) (b/(3a/4f/4c/4) (g/(3f/4c/4A/4) | %60
 (6:4:6((d/4c/4A/4F/4B/4A/4) (6:4:6F/4C/4G/4F/4C/4A,/4[I:staff +1] (6:4:6D/4C/4A,/4F,/4C,/4A,/4 (6:4:6D/4C/4A,/4F,/4C,/4A,/4 | %61
"_smorz."[Q:1/4=36] (6:4:6D/4C/4A,/4F,/4C,/4A,/4[Q:1/4=32] (6:4:6D/4C/4A,/4F,/4C,/4A,/4[Q:1/4=28] (6:4:6D/4C/4A,/4F,/4C,/4A,/4[Q:1/4=24] (6:4:6D/4C/4A,/4F,/4C,/4C/4) | %62
!pp![Q:1/4=20][I:staff -1] !fermata!A4 |] %63
V:2
 z |!ped! (C,,C,[E,B,]C,)!ped-up! |!ped! (F,,C,[F,A,]C,)!ped-up! |!ped! (C,,C,[E,B,]C,)!ped-up! | %4
!ped! (F,,C,[F,A,C])!ped-up! z |!ped! (D,,D,[^^F,C]D,)!ped-up! | .G,,([D,G,B,] .B,,)[D,G,-D-] | %7
 [G,D]D^B,C/>=B,/ | ([D,A,][^B,,=A,][C,E,])!arpeggio![F,,C,F,]- x | %9
 x!ped! (C,,C,[E,B,]C,)!ped-up! |!ped! (F,,C,[F,A,]C,)!ped-up! |!ped! (F,,=D,!ped-up![G,B,]C,) | %12
!ped! (F,,C,[F,A,C])!ped-up! z |!ped! (D,,D,[^^F,C]D,)!ped-up! | %14
!ped! (G,,[D,G,B,][^F,G,B,D][G,B,DF])!ped-up! |!ped! C,4!ped-up! | .F,,.[A,C].[F,A,] z | %17
!ped! C,, ([G,CE][E,G,C][G,CE])!ped-up! |!ped! C, ([=A,CF][F,A,C][A,CF])!ped-up! | %19
!ped! [C,,C,] ([=A,CF][F,A,C][A,C=A])!ped-up! |!ped! [=C,,=C,] ([=A,=DF][F,A,D][A,DF])!ped-up! | %21
!ped! [B,,,B,,] ([=A,^DF][F,A,D][^^G,^^G])!ped-up! | %22
!ped! [^A,,,^A,,] !arpeggio![E,^A,^^C^A]!ped-up!!ped! [A,,,A,,] !arpeggio![E,B,D^^G]!ped-up! | %23
!ped! [A,,,A,,] !arpeggio![E,^^CA]!ped-up!!ped! [A,,,A,,] !arpeggio![D,^^G,F]!ped-up! | %24
!ped! (6:4:6(A,,,/ ^^C,/A,/E,/^^C/A,/)!ped-up![I:staff -1] !>!E2 | %25
!ped![I:staff +1] .^C,, [C,G,B,]2 (.G,, | .C,,) [C,G,B,]2 .G,, | .C,, C,2!ped-up!!ped! .C,, | %28
 (^G,!ped-up!!>(!=A,!>)!G,) (.G,, |!ped! .C,,) [C,G,B,]2 (.G,, | .C,,) [C,G,B,]2 .G,, | %31
 .C,, C,2!ped! .C,,!ped-up! |!ped! .[C,^G,C].C,,!ped-up!!ped! .[^^F,A,=E].[C,,C,] | %33
!ped! !>!=D,4!ped-up! |!ped! !>!=D,4!ped-up! |!ped! =D,3!ped-up! x | (!>!B,!>(!=C!>)!B,G,) | %37
!ped! !>!=D,4!ped-up! |!ped! x4!ped-up! |!ped! [C,,C,][G,B,^E]!ped-up!!ped! [C,,C,]!ped-up![=A,F] | %40
!ped! [C,,C,][G,CE]!ped-up!!ped! [C,,C,][F,=A,=D]!ped-up! | %41
!ped! [C,,C,][^E,C]!ped-up!!ped! [G,,,G,,][F,B,]-!ped-up! | [F,B,] !>![F,B,]2 x | %43
!ped! C,, ([C,G,]=D) z!ped-up! | z2!ped! !arpeggio![F,,C,=A,]!ped-up! z | %45
!ped! !arpeggio![C,,G,,E,] z !>![=D,=D] z!ped-up! | z2!ped! ([F,,,F,,]2!ped-up! | %47
!ped! [C,,,C,,]2) z2!ped-up! | z2 !fermata!z z |!ped! (C,,C,[E,B,]C,)!ped-up! | %50
!ped! (F,,C,[F,A,]C,)!ped-up! |!ped! (F,,=D,[G,B,]C,)!ped-up! |!ped! (F,,C,[F,A,C])!ped-up! z | %53
!ped! (D,,D,[^^F,C]D,)!ped-up! | %54
!ped! .[G,,,G,,]([D,^F,G,B,]!ped-up!!ped! .[B,,,B,,])[F,G,B,D-]!ped-up! | DD^B,C/>=B,/ | %56
 A,D^B,C/>=B,/ | [D,A,][^B,,=A,] [C,G,]2 | .F,,, (3([C,A,]/[C,A,]/[C,A,]/ .[F,A,C].[C,F,A,]) | %59
 F,, (.[C,F,A,]/(3.[C,F,A,]/4.[C,F,A,]/4.[C,F,A,]/4 .[F,A,C].[C,F,A,]) | %60
 !arpeggio!.[F,,C,A,] z z!ped! C,,!ped-up! |!ped! [F,,,F,,]3 C,,!ped-up! | !fermata!F,,,4 |] %63
V:3
 x | x4 | x4 | x4 | x4 | x4 | x4 | C,3- C,/>^^C,/ | F,2 x3 | x5 | x4 | x =D,2 x | x4 | x4 | x4 | %15
 .C,, !>!F,2 E, | x4 | x4 | x4 | x4 | x4 | x4 | x4 | x4 | x4 | x4 | x4 | x ([G,B,][^^G,^B,]) x | %28
 [C,C]3 x | x4 | x4 | x ([G,B,][^^G,^B,]) x | x4 | =D,, [=E,G,B,]2 [E,G,B,] | %34
 =D,, [=E,G,B,]2 [E,G,B,] | =D,, ([G,B,][F,=C]) D,, | [=D,=E,G,]4 | =D,, [=E,G,B,]2 [E,G,B,] | %38
 [=D,,=D,] [=E,G,B,]2 [G,B,] | x4 | x4 | x4 | x2 B,,G, | x4 | x4 | x4 | x4 | x4 | x4 | x4 | x4 | %51
 x =D,2 x | x4 | x4 | x4 | C,4- | C,3- x | x D2 !>!=D/-(3(D/4^C/4=B,/4) | x4 | x4 | x4 | x4 | x4 |] %63
V:4
 x | x4 | x4 | x4 | x4 | x4 | x4 | x F,2 E, | x5 | x5 | x4 | x4 | x4 | x4 | x4 | %15
 x (D^B,C/)z/4=B,/4 | x4 | x4 | x4 | x4 | x4 | x4 | x4 | x4 | x4 | x4 | x4 | x4 | x4 | x4 | x4 | %31
 x4 | x4 | x4 | x4 | x4 | x4 | x4 | x4 | x4 | x4 | x4 | x2 B,,2 | x4 | x4 | x4 | x4 | x4 | x4 | %49
 x4 | x4 | x4 | x4 | x4 | x4 | x4 | x4 | x4 | x4 | x4 | x4 | x4 | x4 |] %63
V:5
 x | x4 | x4 | x4 | x4 | x4 | x4 | x4 | x3 ^A, x |=B,/ x9/2 | x4 | x4 | x4 | x4 | x4 | x4 | x4 | %17
 x4 | x"^dolciss."!>(! (7:1:7=e63/64d63/64=d63/64c63/64=c63/64B63/64A63/64!>)! x2 | x4 | %20
 x (8:1:8=f=ed=dc=c=BA x2 | x4 | x4 | x4 | x4 | (5:4:5E/G/B/D/d/ (5:4:5C/G/B/D/d/ | %26
 (5:4:5E/B/c/F/f/ (5:4:5G/B/c/A/a/ | (5:4:5G/B/c/E/e/ (5:4:5F/^^G/^B/D/d/ | %28
 (5:4:5E/G/!>(!c/=A/c/!>)!!p! (5:4:5(G/E/c/G/c/) | (5:4:5E/G/B/D/d/ (5:4:5C/G/B/D/d/ | %30
 (5:4:5E/B/c/F/f/ (5:4:5G/B/c/A/a/ | (5:4:5G/B/"_cresc."c/E/e/ (5:4:5F/^^G/^B/D/d/ | %32
 (5:4:5E/!<(!G/c/E/e/ (5:4:5^^F/A/=e/F/!<)!^^f/ |x/>B/ (3(=e/^F/f/)x/>G/ (3(B/F/f/) | %34
x/>B/ (3=e/=A/=a/x/>e/ (3g/c/c'/ |x/>=e/ (3g/G/g/x/>=c/ (3f/F/f/ | %36
 G/>B/ (3=e/!>(!=c/e/!>)!x/>G/ (3e/B/e/ | G/>B/ (3=e/F/f/x/>G/ (3B/F/f/ | %38
x/>B/ (3=e/=A/=a/x/>e/ (3g/c/c'/ |x/>^e/ (3g/c/c'/x/>f/ (3=a/c/c'/ | %40
x/>e/ (3g/c/c'/x/>f/ (3=a/=d/=d'/ |x/>^e/ (3g/c/c'/x/>=d/ (3f/B/b/ | %42
x/>B/ (3=d/G/g/x/>"_decresc."B/ (3d/F/f/ |x/>G/ (3B/E/e/x/>E/ (3G/C/c/ | %44
x/>E/ (3G/C/c/x/>F/ (3=A/C/c/ |x/>E/ (3G/C/c/ x3/4[K:bass] x/4 (3:2:2x/ C, | %46
x/>E,/ (3G,/C,/C/x/>F,/ (3=A,/C,/C/ |x/>E,/ (3G,/C,/C/x/>E,/ (3G,/C,/C/ | %48
x/>E,/ (3G,/C,/C/ x[K:treble] x | x4 | x4 | x4 | x4 | x4 | x4 | x4 | (^F3 E) | F2- F>^E | %58
 x!8va(! x3!8va)! | x4 | x4 | x4 | x4 |] %63
V:6
 x | x4 | x4 | x4 | x4 | x4 | x4 | x4 | x5 | x5 | x4 | x4 | x4 | x4 | x4 | x4 | x4 | x4 | x4 | x4 | %20
 x4 | x4 | x4 | x4 | x4 | (5:4:4x/ G/B x/ (5:4:4x/ G/B x/ | (5:4:4x/ B/c x/ (5:4:4x/ B/c x/ | %27
 (5:4:4x/ B/c x/ (5:4:4x/ ^^G/^B x/ | x4 | (5:4:4x/ G/B x/ (5:4:4x/ G/B x/ | %30
 (5:4:4x/ B/c x/ (5:4:4x/ B/c x/ | (5:4:4x/ B/c x/ (5:4:4x/ ^^G/^B x/ | %32
 (5:4:4x/ G/c x/ (5:4:4x/ A/=e x/ | x3/4 B/4(3=e/ x/ x/ x3/4 G/4(3B/ x/ x/ | %34
 x3/4 B/4(3=e/ x/ x/ x3/4 e/4(3g/ x/ x/ | x3/4 =e/4(3g/ x/ x/ x3/4 =c/4(3f/ x/ x/ | %36
 x (3:2:2x/ =cB x | x3/4 B/4(3=e/ x/ x/ x3/4 G/4(3B/ x/ x/ | %38
 x3/4 B/4(3=e/ x/ x/ x3/4 e/4(3g/ x/ x/ | x3/4 e/4(3g/ x/ x/ x3/4 f/4(3=a/ x/ x/ | %40
 x3/4 e/4(3g/ x/ x/ x3/4 f/4(3=a/ x/ x/ | x3/4 e/4(3g/ x/ x/ x3/4 =d/4(3f/ x/ x/ | %42
 x3/4 B/4(3=d/ x/ x/ x3/4 B/4(3d/ x/ x/ | x3/4 G/4(3B/ x/ x/ x3/4 x/4 (3x/ x/ x/ | %44
 x3/4 x/4 (3x/ x/ x/ x3/4 x/4 (3x/ x/ x/ | x3/4 x/4 (3x/ x/ x/ x3/4[K:bass] x5/4 | %46
 x3/4 x/4 (3x/ x/ x/ x3/4 x/4 (3x/ x/ x/ | x3/4 x/4 (3x/ x/ x/ x3/4 x/4 (3x/ x/ x/ | %48
 x3/4 x/4 (3x/ x/ x/ x[K:treble] x | x4 | x4 | x4 | x4 | x4 | x4 | x4 | x4 | x4 | %58
 x!8va(! x3!8va)! | x4 | x4 | x4 | x4 |] %63
V:7
 x | x4 | x4 | x4 | x4 | x4 | x4 | x4 | x5 | x5 | x4 | x4 | x4 | x4 | x4 | x4 | x4 | x4 | x4 | x4 | %20
 x4 | x4 | x4 | x4 | x4 | (5:4:4x/ x/ x/ D(5:4:3C x/ D |(5:4:3E x/ F(5:4:3G x/ A | %27
(5:4:3G x/ E(5:4:3F x/ D | (5:4:4x/ x/ x/ =A(5:4:2G x/ x4/5 | (5:4:4x/ x/ x/ D(5:4:3C x/ D | %30
(5:4:3E x/ F(5:4:3G x/ A | (5:4:3G x/ E(5:4:3F x/ D |(5:4:3E x/ E(5:4:3^^F x/ F | %33
G (3:2:2x/ F=E (3:2:2x/ F | G (3:2:2x/ =AB (3:2:2x/ c |B (3:2:2x/ G=A (3:2:2x/ F | x4 | %37
 x (3:2:2x/ F=E (3:2:2x/ F |G (3:2:2x/ =AB (3:2:2x/ c |=d (3:2:2x/ cd (3:2:2x/ c | %40
 =d (3:2:2x/ c=e (3:2:2x/ d |=d (3:2:2x/ cc (3:2:2x/ B |=A (3:2:2x/ GG (3:2:2x/ F | %43
 F (3:2:2x/ E x (3:2:2x/ C |=D (3:2:2x/ CD (3:2:2x/ C |=D (3:2:1x/ x17/12[K:bass] x5/4 | %46
 =D, (3:2:2x/ C,D, (3:2:2x/ C, |=D, (3:2:2x/ C,D, (3:2:2x/ C, |=D, (3:2:2x/ C, x[K:treble] x | x4 | %50
 x4 | x4 | x4 | x4 | x4 | x4 | x4 | x4 | x!8va(! x3!8va)! | x4 | x4 | x4 | x4 |] %63
V:8
 x | x4 | x4 | x4 | x4 | x4 | x4 | x4 | x5 | x5 | x4 | x4 | x4 | x4 | x4 | x4 | x4 | x4 | x4 | x4 | %20
 x4 | x4 | x4 | x4 | x4 | x4 | x4 | x4 | x4 | x4 | x4 | x4 | x4 | x4 | x4 | x4 | x4 | x4 | x4 | %39
 x4 | x4 | x4 | x4 | x4 | x4 | x4 | x4 | x4 | x4 | x4 | x4 | x4 | x4 | x4 | x4 | x F,2 E,/>B,/ | %56
 x3 C,/>^^C,/ | x4 | x4 | x4 | x4 | x4 | x4 |] %63

